X:1
T:Title
%%score { 1 | 2 }
L:1/8
M:4/4
K:Db
V:1 treble nm="Grand Piano"
V:2 bass 
V:1
 z4 z2[Q:1/4=100] [DF][EG] | [FA]2 [Fd]2 [DGc]2 [DGB]2 | [DFA]4 [A,DF]2 [CE][DF] | %3
 [EG]2 [GB]2 [FA]2 [EG]2 |[M:3/4] [DF]6 |[M:1/4] [DF][EG] |[M:4/4] [FA]2 [Fd]2 [DGc]2 [DGB]2 | %7
 [DFA]4 [A,DF]2 [CE][DF] | [EG]2 [FA]2 [GB]2 [Gc]2 |[M:3/4] [Fd]6 |[M:1/4] [Fd][Ac] | %11
[M:4/4] [GB]4 [Gd]4 | [FA]4 [DF]4 | [CE][DF][EG][FA] [Gc]2 [CGB]2 |[M:3/4] [DFA]2 [Fd]2 [FA]2 | %15
[M:1/4] [Fd][Gc] |[M:4/4] [GB]4 [Gd]4 | [FA]4 [DF]4 | [CE][DF][EG][FA] [GB]2 [Gc]2 | %19
[M:3/4] [Fd]6 |] %20
V:2
 z4 z2 [D,A,][D,A,] | [D,D]2 [D,A,]2 G,,A,,B,,C, | D,4 D,2 [A,,A,][A,,A,] | %3
 [A,,A,]2 [A,,A,]2 [B,,A,]2 [C,A,]2 |[M:3/4] [D,A,]6 |[M:1/4] [D,A,][D,A,] | %6
[M:4/4] [D,D]2 [D,A,]2 G,,A,,B,,C, | D,4 D,2 [A,,A,][A,,A,] | [A,,A,]2 [A,,A,]2 [A,,A,]2 [A,,A,]2 | %9
[M:3/4] [D,A,]6 |[M:1/4] [D,A,][F,D] |[M:4/4] [G,D]4 [G,B,]4 | [D,D]4 [D,A,]4 | %13
 [A,,A,][A,,A,][A,,A,][A,,A,] [A,,A,]2 A,,2 |[M:3/4] D,2 [D,A,]2 [D,D]2 |[M:1/4] [D,A,][F,D] | %16
[M:4/4] [G,D]4 [G,B,]4 | [D,D]4 [D,A,]4 | [A,,A,][A,,A,][A,,A,][A,,A,] [A,,A,]2 [A,,A,]2 | %19
[M:3/4] [D,A,]6 |] %20

